material/.icons/material/page-next.svg

<svg xmlns="http://www.w3.org/2000/svg" viewBox="0 0 24 24"><path d="M20 3H5a2 2 0 00-2 2v6h4V9l4 3-4 3v-2H3v6a2 2 0 002 2h15a2 2 0 002-2V5a2 2 0 00-2-2m-3 14h-4v-2h4v2m3-4h-7v-2h7v2m0-4h-7V7h7v2M3 13H0v-2h3v2z"/></svg>

<?xml version="1.0" encoding="UTF-8"?><!DOCTYPE svg PUBLIC "-//W3C//DTD SVG 1.1//EN" "http://www.w3.org/Graphics/SVG/1.1/DTD/svg11.dtd"><svg xmlns="http://www.w3.org/2000/svg" xmlns:xlink="http://www.w3.org/1999/xlink" version="1.1" id="mdi-page-next" width="24" height="24" viewBox="0 0 24 24"><path d="M20,3H5A2,2 0 0,0 3,5V11H7V9L11,12L7,15V13H3V19A2,2 0 0,0 5,21H20A2,2 0 0,0 22,19V5A2,2 0 0,0 20,3M17,17H13V15H17V17M20,13H13V11H20V13M20,9H13V7H20V9M3,13H0V11H3V13Z" /></svg>
